logo/compass.svg

<?xml version="1.0" encoding="UTF-8" standalone="no" ?>
<svg width="256px" height="256px" viewBox="0 0 256 256" version="1.1" xmlns="http://www.w3.org/2000/svg" xmlns:xlink="http://www.w3.org/1999/xlink" preserveAspectRatio="xMidYMid">
    <defs>
        <path id="path-1" d="M255.774254,0 C252.399891,68.4647791 242.410695,131.708591 215.744528,191.254384 C195.276518,236.959819 148.479079,260.749775 95.7033099,254.055791 C52.3241998,248.554202 12.5442779,211.449182 2.85984385,167.45544 C-7.94571431,118.366562 12.3304449,67.0117363 55.8774239,44.6588453 C117.3484,13.1043487 184.550898,4.1254431 255.774254,0"></path>
    </defs>
    <g>
        <mask id="mask-2" fill="white">
            <use xlink:href="#path-1"></use>
        </mask>
        <use fill="#ffffff" xlink:href="#path-1"></use>
        <g mask="url(#mask-2)">
            <path d="M113.789102,76.0935034 C113.789102,76.0935034 107.895706,108.750515 105.550539,125.297227 C93.6138642,115.993758 69.9913193,99.0675577 69.9913193,99.0675577 C69.9913193,99.0675577 88.5238407,123.990986 97.2750039,135.122992 C80.6499922,137.007453 47.3240281,142.196464 47.3240281,142.196464 C47.3240281,142.196464 81.4074005,147.67808 97.28,149.512609 C88.074192,161.169907 69.9063856,184.804072 69.9063856,184.804072 C69.9063856,184.804072 94.5871038,167.756036 105.67744,159.210546 C107.939672,175.070183 113.789102,208.848684 113.789102,208.848684 C113.789102,208.848684 119.139922,175.098146 121.173333,158.650301 C132.137767,167.19579 155.287681,185.045747 155.287681,185.045747 C155.287681,185.045747 139.160281,160.904265 130.32918,149.501624 C146.370648,147.618161 178.966183,142.196464 178.966183,142.196464 C178.966183,142.196464 146.052896,136.954525 130.44509,135.149955 C138.522779,124.202701 155.44256,99.0545752 155.44256,99.0545752 C155.44256,99.0545752 131.732084,117.442807 121.15235,125.9114 C119.194879,109.569412 113.789102,76.0935034 113.789102,76.0935034 M255.800156,0.461378531 C252.425792,68.9261577 242.436596,132.169969 215.770429,191.715762 C195.30242,237.421198 148.50498,261.211153 95.7292116,254.51717 C52.3501015,249.01558 12.5701795,211.91056 2.88574551,167.916819 C-7.91981265,118.827941 12.3563466,67.4731149 55.9033255,45.1202238 C117.374301,13.5657272 184.576799,4.58682163 255.800156,0.461378531" fill="#E21708"></path>
            <path d="M6.19516003,103.901047 C10.0871194,92.4394856 15.7756753,81.7349045 23.1319282,72.3046069 C25.909758,68.8842142 28.9973458,65.467816 32.4276659,61.9445617 C35.4582982,59.0065192 38.6667916,56.2682077 42.0711319,53.7296271 C45.1956909,51.4506968 48.64,49.210714 52.3361124,47.0306505 C53.5071975,46.3675437 54.6962685,45.7254087 55.9033255,45.1062427 C70.7866979,37.4665332 86.0038095,31.1500414 101.535675,25.9051063 C141.800219,12.3104181 184.158126,5.91603121 228.178735,2.34584019 C239.039251,1.51795534 248.438907,0.972689804 255.800156,0.461378531 C180.863653,16.6232719 141.051378,32.5257029 92.5649685,53.7296266 C44.0785589,74.9335503 2.68726221,120.999892 0.492615144,134.190248 C1.78360656,122.256323 3.59419204,112.446536 6.19516003,103.901047 Z" fill-opacity="0.3" fill="#FA524A"></path>
            <path d="M97.01121,259.081814 C92.3038876,258.482621 87.4207026,257.569851 82.4775644,256.245635 C64.2637939,250.993709 45.2316628,239.761838 30.0445277,223.37591 C16.817861,208.955334 7.05848556,191.279143 2.88574551,172.324675 C0.934270101,163.458617 -0.00299765808,154.516662 0.0269789227,145.687554 C0.570554254,225.661831 94.0206321,238.023534 119.012108,238.024217 C158.68281,238.025302 158.187416,230.12382 219.802279,186.789191 C218.498298,189.921971 217.157346,193.027788 215.770429,196.123618 C201.342701,228.341221 173.828197,249.669493 140.363341,257.107474 C131.580203,259.051855 122.495301,260.039524 113.137611,260.039524 C107.841749,260.039524 102.460952,259.722951 97.01121,259.081814 Z" fill-opacity="0.3" fill="#AE0E10"></path>
        </g>
    </g>
</svg>

<svg viewBox="0 0 256 256" xmlns="http://www.w3.org/2000/svg" xmlns:xlink="http://www.w3.org/1999/xlink"><defs><mask id="a"><use fill="#FFF" xlink:href="#b"/></mask><path id="b" d="M255.77 0c-3.38 68.46-13.37 131.7-40.03 191.25 -20.47 45.7-67.27 69.49-120.05 62.8 -43.38-5.51-83.16-42.61-92.85-86.61 -10.81-49.09 9.47-100.45 53.01-122.8C117.32 13.08 184.52 4.1 255.74-.02"/></defs><use fill="#FFF" xlink:href="#b"/><g mask="url(#a)"><path fill="#E21708" d="M113.78 76.09s-5.9 32.65-8.24 49.2c-11.94-9.31-35.56-26.23-35.56-26.23s18.53 24.92 27.28 36.05c-16.63 1.88-49.96 7.07-49.96 7.07s34.08 5.48 49.95 7.31c-9.21 11.65-27.38 35.29-27.38 35.29s24.68-17.05 35.77-25.6c2.26 15.85 8.11 49.63 8.11 49.63s5.35-33.76 7.38-50.2c10.96 8.54 34.11 26.39 34.11 26.39s-16.13-24.15-24.96-35.55c16.04-1.89 48.63-7.31 48.63-7.31s-32.92-5.25-48.53-7.05c8.07-10.95 24.99-36.1 24.99-36.1s-23.72 18.38-34.3 26.85c-1.96-16.35-7.37-49.82-7.37-49.82M255.71.38c-3.38 68.46-13.37 131.7-40.03 191.25 -20.47 45.7-67.27 69.49-120.05 62.8 -43.38-5.51-83.16-42.61-92.85-86.61 -10.81-49.09 9.47-100.45 53.01-122.8C117.26 13.46 184.46 4.48 255.68.36"/><g fill="#FA524A" fill-opacity=".3"><path d="M6.19 103.9c3.89-11.47 9.58-22.17 16.93-31.6 2.77-3.43 5.86-6.84 9.29-10.37 3.03-2.94 6.23-5.68 9.64-8.22 3.12-2.28 6.56-4.52 10.26-6.7 1.17-.67 2.36-1.31 3.56-1.93 14.88-7.64 30.1-13.96 45.63-19.21 40.26-13.6 82.62-19.99 126.64-23.56C239 1.48 248.4.93 255.76.42 180.82 16.58 141.01 32.48 92.52 53.68 44.03 74.88 2.64 120.95.44 134.14c1.29-11.94 3.1-21.75 5.7-30.29Z"/><path fill="#AE0E10" d="M97.01 259.08c-4.71-.6-9.6-1.52-14.54-2.84 -18.22-5.26-37.25-16.49-52.44-32.87 -13.23-14.43-22.99-32.1-27.16-51.06C.91 163.44-.02 154.5.01 145.67 .55 225.64 94 238 118.99 238c39.67 0 39.17-7.91 100.79-51.24 -1.31 3.13-2.65 6.23-4.04 9.33 -14.43 32.21-41.95 53.54-75.41 60.98 -8.79 1.94-17.87 2.93-27.23 2.93 -5.3 0-10.68-.32-16.13-.96Z"/></g></g></svg>
